public/images/brand/brand-dark-03.svg

<svg width="99" height="24" viewBox="0 0 99 24" fill="none" xmlns="http://www.w3.org/2000/svg">
<g clip-path="url(#clip0_512_10991)">
<path d="M23.6464 21.8212H18.2106L16.5474 17.8104H7.48869L5.97391 21.8212H0.62793L8.79526 1.56163H14.6514L23.6464 21.8212ZM11.7949 6.40529L8.82649 14.2759H15.0639L11.7949 6.40529ZM43.3906 1.56163H47.7866V21.8212H42.7373V9.16937L37.2716 15.5252H36.4999L31.0342 9.16937V21.8212H25.9849V1.56163H30.3809L36.8877 9.07567L43.3906 1.56163ZM60.5802 1.56163C67.9758 1.56163 71.7719 6.16454 71.7719 11.7122C71.7719 17.5332 68.0891 21.8121 60.0115 21.8121H51.6412V1.56163H60.5802ZM56.6891 18.1058H59.9855C65.0608 18.1058 66.5795 14.6598 66.5795 11.6888C66.5795 8.21287 64.7081 5.27441 59.9269 5.27441H56.6891V18.1058ZM81.8223 6.36755L75.456 0H98.6345V23.1798L92.267 16.8123V6.36755H81.8223ZM81.8145 7.64418L75.2595 14.1991V23.375H84.4354L90.9903 16.8201H81.8158L81.8145 7.64418Z" fill="white"  />
</g>
<defs>
<clipPath id="clip0_512_10991">
<rect width="98.0066" height="23.375" fill="white" transform="translate(0.62793)"/>
</clipPath>
</defs>
</svg>

<svg xmlns="http://www.w3.org/2000/svg" width="99" height="24" fill="none"><g clip-path="url(#a)"><path fill="#fff" d="M23.646 21.821h-5.435l-1.664-4.01H7.49l-1.515 4.01H.628l8.167-20.26h5.856zM11.795 6.405l-2.969 7.87h6.238zM43.39 1.562h4.396v20.26h-5.05V9.168l-5.465 6.356H36.5L31.034 9.17v12.652h-5.05V1.561h4.397l6.507 7.515zm17.19 0c7.395 0 11.19 4.603 11.19 10.15 0 5.821-3.682 10.1-11.76 10.1h-8.37V1.562zm-3.892 16.544h3.297c5.075 0 6.593-3.446 6.593-6.417 0-3.476-1.87-6.415-6.652-6.415h-3.238zM81.822 6.368 75.456 0h23.179v23.18l-6.368-6.368V6.368zm-.008 1.276L75.26 14.2v9.176h9.175l6.555-6.555h-9.174z"/></g><defs><clipPath id="a"><path fill="#fff" d="M.628 0h98.007v23.375H.628z"/></clipPath></defs></svg>
